!!!COM: Corelli, Arcangelo
!!!OTL: 
!!!ONM: Opus 6, No. 10
!!!OMV: 3
!!!CDT: 1653/2/17/-1713/1/8/
!!!OCY: Italia
**kern	**kern	**kern	**kern	**kern	**kern	**kern
*clefC	*clefG	*clefG	*clefG	*clefC	*clefG	*clefG
*k[]	*k[]	*k[]	*k[]	*k[]	*k[]	*k[]
*a:	*a:	*a:	*a:	*a:	*a:	*a:
*M3/4	*M3/4	*M3/4	*M3/4	*M3/4	*M3/4	*M3/4
=1	=1	=1	=1	=1	=1	=1
4A	4a	4e	4cc	4A	4e	4cc
4A	4cc	4e	4cc	4A	4e	4cc
4A	4a	4e	4cc	4A	4e	4cc
=2	=2	=2	=2	=2	=2	=2
2G	2b-	2e	2cc#	2G	2e	2cc#
4r	4r	4r	4r	4r	4r	4r
=3	=3	=3	=3	=3	=3	=3
4D	4d	4a	4ff	4D	4a	4ff
4D	4f	4a	4ff	4D	4a	4ff
4D	4d	4a	4ff	4D	4a	4ff
=4	=4	=4	=4	=4	=4	=4
2C	2e-	2a	2ff#	2C	2a	2ff#
4r	4r	4r	4r	4r	4r	4r
=5	=5	=5	=5	=5	=5	=5
4B-	4b-	4dd	4gg	4B-	4dd	4gg
4F#	4a	4dd	4aa	4F#	4dd	4aa
4G	4g	4dd	4bb-	4G	4dd	4bb-
=6	=6	=6	=6	=6	=6	=6
2G	2a	2cc#	2ee	2G	2cc#	2ee
4r	4r	4r	4r	4r	4r	4r
=7	=7	=7	=7	=7	=7	=7
4F	4f	4a	4dd	4F	4a	4dd
4C#	4e	4a	4ee	4C#	4a	4ee
4D	4d	4a	4ff	4D	4a	4ff
=8	=8	=8	=8	=8	=8	=8
2D	2e	2g#	2b	2D	2g#	2b
4r	4r	4r	4r	4r	4r	4r
=9	=9	=9	=9	=9	=9	=9
4C	4e	4e	4a	4C	4e	4a
4BB	4d	4g#	4dd	4BB	4g#	4dd
4AA	4e	4a	4cc	4AA	4a	4cc
=10	=10	=10	=10	=10	=10	=10
2GG#	2B	2d	2f	2GG#	2d	2f
4r	4r	4r	4r	4r	4r	4r
=11	=11	=11	=11	=11	=11	=11
2GG	2e	2B	2e	2GG	2B	2e
4r	4r	4r	4r	4r	4r	4r
=12	=12	=12	=12	=12	=12	=12
2FF	2A	2A	2d	2FF	2A	2d
4r	4r	4r	4r	4r	4r	4r
=13	=13	=13	=13	=13	=13	=13
2.EE	2.B	2.G#	2.e	2.EE	2.G#	2.e
==	==	==	==	==	==	==
*-	*-	*-	*-	*-	*-	*-
!!!RWG: This file only contains pitch and duration data.
!!!RWG: Transposing instruments are not transposed.
!!!RWG: Durations of rests and tied notes may be interpreted.
!!!RWG: Key is interpreted using the Humdrum key tool.
!!!SCA: 
!!!YOR: Chrysander Edition
!!!AGN: concerto grosso
!!!AFT: stage1
!!!ENC: F. Bennion
!!!END: 1997/04/15
!!!AST: baroque
!!!YEC: Copyright 1994, Center for Computer Assisted Research in the Humanities
!!!YEM: Rights to all derivative electronic formats reserved.
!!!YEM: Refer to licensing agreement for further details.
!!!YEN: United States of America
!!!EED: W.B. Hewlett
!!!KEY: 1508100721
!!!EMD: Converted from MuseData to Humdrum Aug 2, 1999, by Bret Aarden using muse2kern.
!!!VTS: 843162698
